resources/icons/linea.svg

<svg viewBox="0 0 1080 1080" fill="none" xmlns="http://www.w3.org/2000/svg">
  <g clip-path="url(#a)">
    <rect width="1080" height="1080" rx="540" fill="#121212"/>
    <path d="M1080 0H0v1080h1080z" fill="#61dfff"/>
    <path d="M745.138 756.429H335.357V321.9h93.759v350.316h316.022zm-.001-350.361c46.19 0 83.634-37.684 83.634-84.168s-37.444-84.167-83.634-84.167-83.633 37.683-83.633 84.167 37.444 84.168 83.633 84.168" fill="#190066"/>
  </g>
  <defs>
    <clipPath id="a">
      <rect width="1080" height="1080" rx="540" fill="#fff"/>
    </clipPath>
  </defs>
</svg>

<svg viewBox="0 0 1080 1080" fill="none" xmlns="http://www.w3.org/2000/svg">
  <g clip-path="url(#clip0_252_66494)">
    <rect width="1080" height="1080" rx="540" fill="#121212"/>
    <path d="M1080 0H0V1080H1080V0Z" fill="#61DFFF"/>
    <path d="M745.138 756.429H335.357V321.9H429.116V672.216H745.138V756.384V756.429Z" fill="#190066"/>
    <path d="M745.137 406.068C791.327 406.068 828.771 368.384 828.771 321.9C828.771 275.416 791.327 237.733 745.137 237.733C698.948 237.733 661.504 275.416 661.504 321.9C661.504 368.384 698.948 406.068 745.137 406.068Z" fill="#190066"/>
  </g>
  <defs>
    <clipPath id="clip0_252_66494">
      <rect width="1080" height="1080" rx="540" fill="white"/>
    </clipPath>
  </defs>
</svg>
